frontend/src/app/components/NewsletterFooter/img/envelope.svg

<svg xmlns="http://www.w3.org/2000/svg" width="76" height="78" viewBox="0 0 76 78">
  <defs>
    <linearGradient id="email-a" x1="0%" y1="9.931%" y2="100%">
      <stop offset="0%" stop-color="#00C8D7"/>
      <stop offset="100%" stop-color="#0A84FF"/>
    </linearGradient>
    <linearGradient id="email-b" x1="-45.448%" x2="144.137%" y1="-54.343%" y2="129.834%">
      <stop offset="0%" stop-color="#00C8D7"/>
      <stop offset="100%" stop-color="#0A84FF"/>
    </linearGradient>
    <linearGradient id="email-c" x1="-143.811%" x2="243.917%" y1="-1576.339%" y2="2059.012%">
      <stop offset="0%" stop-color="#00C8D7"/>
      <stop offset="100%" stop-color="#0A84FF"/>
    </linearGradient>
    <linearGradient id="email-d" x1="-154.635%" x2="232.54%" y1="-2040.158%" y2="1683.524%">
      <stop offset="0%" stop-color="#00C8D7"/>
      <stop offset="100%" stop-color="#0A84FF"/>
    </linearGradient>
    <linearGradient id="email-e" x1="-5.259%" y1="-76.313%" y2="100%">
      <stop offset="0%" stop-color="#00C8D7"/>
      <stop offset="100%" stop-color="#0A84FF"/>
    </linearGradient>
  </defs>
  <g fill="none" fill-rule="evenodd" transform="translate(1 -6)">
    <path stroke="url(#email-a)" stroke-linecap="round" stroke-linejoin="round" stroke-width="3" d="M70.8637499,34.9070109 C72.1893973,36.3346956 73,38.2472647 73,40.3491602 L73,73.3028924 C73,77.7211704 69.418278,81.3028924 65,81.3028924 L9,81.3028924 C4.581722,81.3028924 1,77.7211704 1,73.3028924 L1,40.3491602 L1,40.3491602 C1,38.4831152 1.6388958,36.7662923 2.70987535,35.4055035 C2.92287545,34.9846221 3.19949742,34.5870353 3.5401342,34.2267812 C3.68948764,34.0688264 3.8489832,33.9207799 4.01760551,33.7835842 L34.3287903,9.1215718 L34.3287903,9.1215718 C36.1938931,7.6040729 38.8750066,7.62900578 40.7115655,9.1809281 L69.9427469,33.8817544 C70.3042688,34.1872464 70.6116108,34.533057 70.8637499,34.9070109 Z M25.5,60.5 L3.06844848,78.2583116 L25.5,60.5 Z M48.1021066,60.8389702 L70.5336581,78.5972818 L48.1021066,60.8389702 Z"/>
    <g transform="translate(17.115 29.127)">
      <path stroke="url(#email-b)" stroke-width="2.623" d="M38.0327869,25.6617317 L38.0327869,5.24590164 C38.0327869,3.07297803 36.2712843,1.31147541 34.0983607,1.31147541 L5.24590164,1.31147541 C3.07297803,1.31147541 1.31147541,3.07297803 1.31147541,5.24590164 L1.31147541,25.6739114 C10.8636624,32.7849167 16.5039938,36.8872886 18.0639471,37.8654359 C18.1456007,37.8736993 18.2462771,37.8824154 18.3606708,37.8909841 C18.7285043,37.918537 19.18966,37.9412772 19.6372147,37.9527564 C20.1400534,37.9656536 20.5963796,37.9638 20.9456206,37.9458576 C21.1161377,37.9370972 21.2541974,37.924784 21.3496524,37.9106464 C23.127381,36.8715236 28.737572,32.7559293 38.0327778,25.6617386 Z"/>
      <path stroke="url(#email-c)" stroke-linecap="round" stroke-linejoin="round" stroke-width="3" d="M11 18L29 18M11 10L29 10"/>
      <path stroke="url(#email-d)" stroke-linecap="round" stroke-linejoin="round" stroke-width="3" d="M11,26 L29,26"/>
    </g>
    <path stroke="url(#email-e)" stroke-linecap="round" stroke-linejoin="round" stroke-width="3" d="M72.9492627,40 C72.9827826,40.2973735 73,40.5996832 73,40.9060143 L73,73.8597465 C73,78.2780245 69.418278,81.8597465 65,81.8597465 L9,81.8597465 C4.581722,81.8597465 1,78.2780245 1,73.8597465 L1,40.9060143 L1,40.9060143 C1,40.6250241 1.01448666,40.3474173 1.04275386,40.0739003 C1.2663897,41.2648664 1.92098046,42.3782713 2.96931071,43.1593573 L2.96931071,43.1593573 L33.8323497,66.1546738 C35.6074845,67.4772845 38.0410085,67.4752092 39.8138848,66.1495726 L39.8138848,66.1495726 L71.1005566,42.7555229 C71.4861848,42.4671763 71.8281394,42.1246379 72.1158279,41.7385184 C72.5158812,41.201589 72.7920261,40.6106734 72.9492627,40 Z"/>
  </g>
</svg>

<svg xmlns="http://www.w3.org/2000/svg" width="76" height="78" viewBox="0 0 76 78"><defs><linearGradient id="a" x1="0%" y1="9.931%" y2="100%"><stop offset="0%" stop-color="#00C8D7"/><stop offset="100%" stop-color="#0A84FF"/></linearGradient><linearGradient id="b" x1="-45.448%" x2="144.137%" y1="-54.343%" y2="129.834%"><stop offset="0%" stop-color="#00C8D7"/><stop offset="100%" stop-color="#0A84FF"/></linearGradient><linearGradient id="c" x1="-143.811%" x2="243.917%" y1="-1576.339%" y2="2059.012%"><stop offset="0%" stop-color="#00C8D7"/><stop offset="100%" stop-color="#0A84FF"/></linearGradient><linearGradient id="d" x1="-154.635%" x2="232.54%" y1="-2040.158%" y2="1683.524%"><stop offset="0%" stop-color="#00C8D7"/><stop offset="100%" stop-color="#0A84FF"/></linearGradient><linearGradient id="e" x1="-5.259%" y1="-76.313%" y2="100%"><stop offset="0%" stop-color="#00C8D7"/><stop offset="100%" stop-color="#0A84FF"/></linearGradient></defs><g fill="none" fill-rule="evenodd"><path stroke="url(#a)" stroke-linecap="round" stroke-linejoin="round" stroke-width="3" d="M70.864 34.907A7.972 7.972 0 0 1 73 40.349v32.954a8 8 0 0 1-8 8H9a8 8 0 0 1-8-8V40.349c0-1.866.639-3.583 1.71-4.943a5 5 0 0 1 1.308-1.622l30.31-24.662a5 5 0 0 1 6.384.059l29.23 24.7c.362.306.67.652.922 1.026zM25.5 60.5L3.068 78.258 25.5 60.5zm22.602.339l22.432 17.758L48.102 60.84z" transform="translate(1 -6)"/><path stroke="url(#b)" stroke-width="2.623" d="M38.033 25.662V5.246a3.934 3.934 0 0 0-3.935-3.935H5.246A3.934 3.934 0 0 0 1.31 5.246v20.428c9.553 7.11 15.193 11.213 16.753 12.191.082.009.182.017.297.026.368.028.829.05 1.276.062.503.013.96.01 1.309-.007.17-.009.308-.021.404-.035 1.777-1.04 7.388-5.155 16.683-12.25z" transform="translate(18.115 23.127)"/><path stroke="url(#c)" stroke-linecap="round" stroke-linejoin="round" stroke-width="3" d="M11 18h18m-18-8h18" transform="translate(18.115 23.127)"/><path stroke="url(#d)" stroke-linecap="round" stroke-linejoin="round" stroke-width="3" d="M11 26h18" transform="translate(18.115 23.127)"/><path stroke="url(#e)" stroke-linecap="round" stroke-linejoin="round" stroke-width="3" d="M72.95 40c.033.297.05.6.05.906V73.86a8 8 0 0 1-8 8H9a8 8 0 0 1-8-8V40.906c0-.281.014-.559.043-.832a4.982 4.982 0 0 0 1.926 3.085l30.863 22.996a5 5 0 0 0 5.982-.005L71.1 42.756A5 5 0 0 0 72.949 40z" transform="translate(1 -6)"/></g></svg>
